ICONS/component-icons/svg/datetimepicker.svg

<?xml version="1.0" encoding="UTF-8"?><svg id="widgets" xmlns="http://www.w3.org/2000/svg" width="24" height="24" viewBox="0 0 24 24"><path id="datetimepicker" d="M13,8h-3v-3h3v3Zm4-3h-3v3h3v-3Zm-8,4h-3v3h3v-3Zm1,3h3v-3h-3v3Zm4,0h3v-3h-3v3Zm-8,4h3v-3h-3v3Zm0,4h3v-3h-3v3ZM4,4H2V24h7s0-2,0-2H4V4Zm17,0h-2V12h2V4ZM0,0V2H22l2-2H0ZM21,18.5c0,3.04-2.46,5.5-5.5,5.5s-5.5-2.46-5.5-5.5,2.46-5.5,5.5-5.5,5.5,2.46,5.5,5.5Zm-2,0c0-1.93-1.57-3.5-3.5-3.5s-3.5,1.57-3.5,3.5,1.57,3.5,3.5,3.5,3.5-1.57,3.5-3.5Zm-3-1.5h-1v2h2v-1h-1v-1Z"/></svg>

<?xml version="1.0" encoding="utf-8"?>
<!-- Generator: Adobe Illustrator 24.2.3, SVG Export Plug-In . SVG Version: 6.00 Build 0)  -->
<svg version="1.1" id="Layer_1" xmlns="http://www.w3.org/2000/svg" xmlns:xlink="http://www.w3.org/1999/xlink" x="0px" y="0px"
	 width="24px" height="24px" viewBox="0 0 24 24" enable-background="new 0 0 24 24" xml:space="preserve">
<path d="M6,20h3v-3H6V20z M9,9H6v3h3V9z M16,17h-1v2h2v-1h-1V17z M6,16h3v-3H6V16z M4,24h5v-2H4V24z M2,24h2V4H2V24z M17,5h-3v3h3V5
	z M21,4h-2v8h2V4z M0,0v2h22l2-2H0z M14,12h3V9h-3V12z M10,12h3V9h-3V12z M13,5h-3v3h3V5z M15.5,13c-3,0-5.5,2.5-5.5,5.5
	s2.5,5.5,5.5,5.5s5.5-2.5,5.5-5.5S18.5,13,15.5,13z M15.5,22c-1.9,0-3.5-1.6-3.5-3.5s1.6-3.5,3.5-3.5s3.5,1.6,3.5,3.5
	S17.4,22,15.5,22z"/>
</svg>
